static/img/kroki/50ca9d8daa73590a0fc436b9dbf5e71e.svg

<?xml version="1.0" encoding="us-ascii" standalone="no"?><svg xmlns="http://www.w3.org/2000/svg" xmlns:xlink="http://www.w3.org/1999/xlink" contentStyleType="text/css" height="252px" preserveAspectRatio="none" style="width:544px;height:252px;" version="1.1" viewBox="0 0 544 252" width="544px" zoomAndPan="magnify"><defs/><g><!--class aws_cognito_group--><g id="elem_aws_cognito_group"><rect codeLine="22" fill="#3D176E" height="39.7891" id="aws_cognito_group" rx="2.5" ry="2.5" style="stroke:#000D19;stroke-width:0.5;" width="202" x="126.5" y="206.58"/><ellipse cx="141.5" cy="226.4745" fill="#ADD1B2" rx="11" ry="11" style="stroke:#181818;stroke-width:1.0;"/><path d="M144.4688,232.1152 Q143.8906,232.412 143.25,232.5527 Q142.6094,232.7089 141.9063,232.7089 Q139.4063,232.7089 138.0781,231.0683 Q136.7656,229.412 136.7656,226.287 Q136.7656,223.162 138.0781,221.5058 Q139.4063,219.8495 141.9063,219.8495 Q142.6094,219.8495 143.25,220.0058 Q143.9063,220.162 144.4688,220.4589 L144.4688,223.1777 Q143.8438,222.5995 143.25,222.3339 Q142.6563,222.0527 142.0313,222.0527 Q140.6875,222.0527 140,223.1308 Q139.3125,224.1933 139.3125,226.287 Q139.3125,228.3808 140,229.4589 Q140.6875,230.5214 142.0313,230.5214 Q142.6563,230.5214 143.25,230.2558 Q143.8438,229.9745 144.4688,229.3964 L144.4688,232.1152 Z " fill="#000000"/><text fill="#D9B8FF" font-family="Helvetica" font-size="17" lengthAdjust="spacing" textLength="160" x="160.5" y="232.3598">aws_cognito_group</text></g><!--class aws_cognito_user_pool--><g id="elem_aws_cognito_user_pool"><rect codeLine="24" fill="#3D176E" height="39.7891" id="aws_cognito_user_pool" rx="2.5" ry="2.5" style="stroke:#000D19;stroke-width:0.5;" width="234" x="110.5" y="106.79"/><ellipse cx="125.5" cy="126.6845" fill="#ADD1B2" rx="11" ry="11" style="stroke:#181818;stroke-width:1.0;"/><path d="M128.4688,132.3252 Q127.8906,132.622 127.25,132.7627 Q126.6094,132.9189 125.9063,132.9189 Q123.4063,132.9189 122.0781,131.2783 Q120.7656,129.622 120.7656,126.497 Q120.7656,123.372 122.0781,121.7158 Q123.4063,120.0595 125.9063,120.0595 Q126.6094,120.0595 127.25,120.2158 Q127.9063,120.372 128.4688,120.6689 L128.4688,123.3877 Q127.8438,122.8095 127.25,122.5439 Q126.6563,122.2627 126.0313,122.2627 Q124.6875,122.2627 124,123.3408 Q123.3125,124.4033 123.3125,126.497 Q123.3125,128.5908 124,129.6689 Q124.6875,130.7314 126.0313,130.7314 Q126.6563,130.7314 127.25,130.4658 Q127.8438,130.1845 128.4688,129.6064 L128.4688,132.3252 Z " fill="#000000"/><text fill="#D9B8FF" font-family="Helvetica" font-size="17" lengthAdjust="spacing" textLength="192" x="144.5" y="132.5698">aws_cognito_user_pool</text></g><!--class aws_iam_role--><g id="elem_aws_iam_role"><rect codeLine="26" fill="#3D176E" height="39.7891" id="aws_iam_role" rx="2.5" ry="2.5" style="stroke:#000D19;stroke-width:0.5;" width="157" x="380" y="106.79"/><ellipse cx="395" cy="126.6845" fill="#ADD1B2" rx="11" ry="11" style="stroke:#181818;stroke-width:1.0;"/><path d="M397.9688,132.3252 Q397.3906,132.622 396.75,132.7627 Q396.1094,132.9189 395.4063,132.9189 Q392.9063,132.9189 391.5781,131.2783 Q390.2656,129.622 390.2656,126.497 Q390.2656,123.372 391.5781,121.7158 Q392.9063,120.0595 395.4063,120.0595 Q396.1094,120.0595 396.75,120.2158 Q397.4063,120.372 397.9688,120.6689 L397.9688,123.3877 Q397.3438,122.8095 396.75,122.5439 Q396.1563,122.2627 395.5313,122.2627 Q394.1875,122.2627 393.5,123.3408 Q392.8125,124.4033 392.8125,126.497 Q392.8125,128.5908 393.5,129.6689 Q394.1875,130.7314 395.5313,130.7314 Q396.1563,130.7314 396.75,130.4658 Q397.3438,130.1845 397.9688,129.6064 L397.9688,132.3252 Z " fill="#000000"/><text fill="#D9B8FF" font-family="Helvetica" font-size="17" lengthAdjust="spacing" textLength="115" x="414" y="132.5698">aws_iam_role</text></g><!--class aws_sagemaker_workteam--><g id="elem_aws_sagemaker_workteam"><rect codeLine="28" fill="#3D176E" height="39.7891" id="aws_sagemaker_workteam" rx="2.5" ry="2.5" style="stroke:#000D19;stroke-width:0.5;" width="271" x="7" y="7"/><ellipse cx="22" cy="26.8945" fill="#ADD1B2" rx="11" ry="11" style="stroke:#181818;stroke-width:1.0;"/><path d="M24.9688,32.5352 Q24.3906,32.832 23.75,32.9727 Q23.1094,33.1289 22.4063,33.1289 Q19.9063,33.1289 18.5781,31.4883 Q17.2656,29.832 17.2656,26.707 Q17.2656,23.582 18.5781,21.9258 Q19.9063,20.2695 22.4063,20.2695 Q23.1094,20.2695 23.75,20.4258 Q24.4063,20.582 24.9688,20.8789 L24.9688,23.5977 Q24.3438,23.0195 23.75,22.7539 Q23.1563,22.4727 22.5313,22.4727 Q21.1875,22.4727 20.5,23.5508 Q19.8125,24.6133 19.8125,26.707 Q19.8125,28.8008 20.5,29.8789 Q21.1875,30.9414 22.5313,30.9414 Q23.1563,30.9414 23.75,30.6758 Q24.3438,30.3945 24.9688,29.8164 L24.9688,32.5352 Z " fill="#000000"/><text fill="#D9B8FF" font-family="Helvetica" font-size="17" lengthAdjust="spacing" textLength="229" x="41" y="32.7798">aws_sagemaker_workteam</text></g><!--link aws_cognito_user_pool to aws_cognito_group--><g id="link_aws_cognito_user_pool_aws_cognito_group"><path codeLine="30" d="M227.5,147.01 C227.5,164.15 227.5,183.06 227.5,200.2 " fill="none" id="aws_cognito_user_pool-to-aws_cognito_group" style="stroke:#1A83AF;stroke-width:2.0;"/><polygon fill="#1A83AF" points="227.5,206.2,231.5,197.2,227.5,201.2,223.5,197.2,227.5,206.2" style="stroke:#1A83AF;stroke-width:2.0;"/></g><!--link aws_iam_role to aws_cognito_group--><g id="link_aws_iam_role_aws_cognito_group"><path codeLine="31" d="M412.86,147.01 C372.36,164.15 319.0349,186.7201 278.5649,203.8601 " fill="none" id="aws_iam_role-to-aws_cognito_group" style="stroke:#1A83AF;stroke-width:2.0;"/><polygon fill="#1A83AF" points="273.04,206.2,282.8873,206.3734,277.6441,204.2501,279.7674,199.0068,273.04,206.2" style="stroke:#1A83AF;stroke-width:2.0;"/></g><!--link aws_sagemaker_workteam to aws_cognito_group--><g id="link_aws_sagemaker_workteam_aws_cognito_group"><path codeLine="32" d="M123.7,47.07 C102.51,71.12 73.36,113.23 92.5,146.58 C108.65,174.72 133.6403,191.3585 161.5703,203.6785 " fill="none" id="aws_sagemaker_workteam-to-aws_cognito_group" style="stroke:#1A83AF;stroke-width:2.0;"/><polygon fill="#1A83AF" points="167.06,206.1,160.4399,198.808,162.4853,204.0821,157.2112,206.1275,167.06,206.1" style="stroke:#1A83AF;stroke-width:2.0;"/></g><!--link aws_sagemaker_workteam to aws_cognito_user_pool--><g id="link_aws_sagemaker_workteam_aws_cognito_user_pool"><path codeLine="33" d="M159.29,47.22 C174.19,64.36 191.9151,84.7405 206.8051,101.8805 " fill="none" id="aws_sagemaker_workteam-to-aws_cognito_user_pool" style="stroke:#1A83AF;stroke-width:2.0;"/><polygon fill="#1A83AF" points="210.74,106.41,207.8573,96.9925,207.4609,102.6354,201.818,102.239,210.74,106.41" style="stroke:#1A83AF;stroke-width:2.0;"/></g><!--SRC=[hP31Ji9048RlFCKcd4ceH86BIIKXUY56l1dJ3DrfsRIxqymkDcXyTwaeMRO5F7YT_zlvlzcraYXGLsuhDEeLiktPGfaA6BI8cQcUKKai-ba6sMWSXdCoxYAm08tY7iitT2g5a7XUgxGmQAsuyg8xI8kSQMFaVhrZC7ONeN4UDIl1sjWvLgkDGqz6JbUJB0l9S6b_9AFn3ROmOedyWmo7GnbDG-HYrTcx3yHIlQE8_4zRaCEMPglYcpfhsH2UPElGt_oauoD8gKmkhhtPqzw93VBHVBa6INL3Pr1QlyOwP2IthN3MkWgd4vcDE-67Kt3Q_9o0sYOfvKOvIXgg4X-zpuviOv6JYgWCSWKwOIen65l8KKEnUrCJ5mvtIWtGlN7mqe_YoIYUlmvksqAzeve_i1tT__pgeFu5]--></g></svg>

<svg xmlns="http://www.w3.org/2000/svg" width="544" height="252" viewBox="0 0 544 252"><rect width="202" height="39.789" x="126.5" y="206.58" fill="#3D176E" rx="2.5" ry="2.5" style="stroke:#000d19;stroke-width:.5"/><circle cx="141.5" cy="226.475" r="11" fill="#ADD1B2" style="stroke:#181818;stroke-width:1"/><path d="M144.469 232.115q-.578.297-1.219.438-.64.156-1.344.156-2.5 0-3.828-1.64-1.312-1.657-1.312-4.782t1.312-4.781q1.328-1.656 3.828-1.656.703 0 1.344.156.656.156 1.219.453v2.719q-.625-.578-1.219-.844-.594-.281-1.219-.281-1.344 0-2.031 1.078-.687 1.062-.687 3.156t.687 3.172q.688 1.062 2.031 1.062.625 0 1.219-.265.594-.281 1.219-.86z"/><text x="160.5" y="232.36" fill="#D9B8FF" font-family="Helvetica" font-size="17" textLength="160">aws_cognito_group</text><rect width="234" height="39.789" x="110.5" y="106.79" fill="#3D176E" rx="2.5" ry="2.5" style="stroke:#000d19;stroke-width:.5"/><circle cx="125.5" cy="126.684" r="11" fill="#ADD1B2" style="stroke:#181818;stroke-width:1"/><path d="M128.469 132.325q-.578.297-1.219.438-.64.156-1.344.156-2.5 0-3.828-1.64-1.312-1.657-1.312-4.782t1.312-4.781q1.328-1.656 3.828-1.656.703 0 1.344.156.656.156 1.219.453v2.719q-.625-.579-1.219-.844-.594-.281-1.219-.281-1.344 0-2.031 1.078-.687 1.062-.687 3.156t.687 3.172q.688 1.062 2.031 1.062.625 0 1.219-.265.594-.281 1.219-.86z"/><text x="144.5" y="132.57" fill="#D9B8FF" font-family="Helvetica" font-size="17" textLength="192">aws_cognito_user_pool</text><rect width="157" height="39.789" x="380" y="106.79" fill="#3D176E" rx="2.5" ry="2.5" style="stroke:#000d19;stroke-width:.5"/><circle cx="395" cy="126.684" r="11" fill="#ADD1B2" style="stroke:#181818;stroke-width:1"/><path d="M397.969 132.325q-.578.297-1.219.438-.64.156-1.344.156-2.5 0-3.828-1.64-1.312-1.657-1.312-4.782t1.312-4.781q1.328-1.656 3.828-1.656.703 0 1.344.156.656.156 1.219.453v2.719q-.625-.579-1.219-.844-.594-.281-1.219-.281-1.344 0-2.031 1.078-.687 1.062-.687 3.156t.687 3.172q.688 1.062 2.031 1.062.625 0 1.219-.265.594-.281 1.219-.86z"/><text x="414" y="132.57" fill="#D9B8FF" font-family="Helvetica" font-size="17" textLength="115">aws_iam_role</text><rect width="271" height="39.789" x="7" y="7" fill="#3D176E" rx="2.5" ry="2.5" style="stroke:#000d19;stroke-width:.5"/><circle cx="22" cy="26.895" r="11" fill="#ADD1B2" style="stroke:#181818;stroke-width:1"/><path d="M24.969 32.535q-.578.297-1.219.438-.64.156-1.344.156-2.5 0-3.828-1.64-1.312-1.657-1.312-4.782t1.312-4.781q1.328-1.656 3.828-1.656.703 0 1.344.156.656.156 1.219.453v2.719q-.625-.578-1.219-.844-.594-.281-1.219-.281-1.343 0-2.031 1.078-.687 1.062-.687 3.156t.687 3.172q.688 1.062 2.031 1.062.625 0 1.219-.265.594-.281 1.219-.86z"/><text x="41" y="32.78" fill="#D9B8FF" font-family="Helvetica" font-size="17" textLength="229">aws_sagemaker_workteam</text><path fill="none" d="M227.5 147.01v53.19" style="stroke:#1a83af;stroke-width:2"/><path fill="#1A83AF" d="m227.5 206.2 4-9-4 4-4-4z" style="stroke:#1a83af;stroke-width:2"/><path fill="none" d="M412.86 147.01c-40.5 17.14-93.825 39.71-134.295 56.85" style="stroke:#1a83af;stroke-width:2"/><path fill="#1A83AF" d="m273.04 206.2 9.847.173-5.243-2.123 2.123-5.243z" style="stroke:#1a83af;stroke-width:2"/><path fill="none" d="M123.7 47.07c-21.19 24.05-50.34 66.16-31.2 99.51 16.15 28.14 41.14 44.778 69.07 57.099" style="stroke:#1a83af;stroke-width:2"/><path fill="#1A83AF" d="m167.06 206.1-6.62-7.292 2.045 5.274-5.274 2.046z" style="stroke:#1a83af;stroke-width:2"/><path fill="none" d="M159.29 47.22c14.9 17.14 32.625 37.52 47.515 54.66" style="stroke:#1a83af;stroke-width:2"/><path fill="#1A83AF" d="m210.74 106.41-2.883-9.417-.396 5.642-5.643-.396z" style="stroke:#1a83af;stroke-width:2"/></svg>
